X:95
T: Der heimkehrende Soldat
N: Q0103L
O: Osteuropa, Ungarn
N: Anhaengsel; letzte Zeile = Refrain (?).
R: Ballade, Ehe, Betrug
M: 4/4
L: 1/16
K: G
D4 | G4G2G2G4G2B2 | d4A2A2A4d4 | B4z8
d3c | B2B2B2B2B2c2d2e2 | d6B2c2z2
c2B2 | A4A4A4e4 | e4d2g2d4
c4 | B4d4d4c4 | B4z8

